static/assets/img/icons/theme/shopping/loader.svg

<svg height="24" viewBox="0 0 24 24" width="24" xmlns="http://www.w3.org/2000/svg"><g fill="none" fill-rule="evenodd"><path d="m0 0h24v24h-24z" opacity="0"/><g fill="#000"><path d="m8 4c.55228475 0 1 .44771525 1 1v12h9c.5522847 0 1 .4477153 1 1s-.4477153 1-1 1h-9c-.55228475 0-1-.4477153-1-1-.55228475 0-1-.4477153-1-1v-11h-2c-.55228475 0-1-.44771525-1-1s.44771525-1 1-1z" opacity=".3"/><rect height="8" opacity=".3" rx="4" width="8" x="11" y="7"/><circle cx="8" cy="18" r="3"/></g></g></svg>

<svg width="24px" height="24px" viewBox="0 0 24 24" version="1.1" xmlns="http://www.w3.org/2000/svg" xmlns:xlink="http://www.w3.org/1999/xlink">
    <title>Icon For Loader</title>
    <g stroke="none" stroke-width="1" fill="none" fill-rule="evenodd">
        <rect opacity="0" x="0" y="0" width="24" height="24"></rect>
        <path d="M8,4 C8.55228475,4 9,4.44771525 9,5 L9,17 L18,17 C18.5522847,17 19,17.4477153 19,18 C19,18.5522847 18.5522847,19 18,19 L9,19 C8.44771525,19 8,18.5522847 8,18 C7.44771525,18 7,17.5522847 7,17 L7,6 L5,6 C4.44771525,6 4,5.55228475 4,5 C4,4.44771525 4.44771525,4 5,4 L8,4 Z" fill="#000000" opacity="0.3"></path>
        <rect fill="#000000" opacity="0.3" x="11" y="7" width="8" height="8" rx="4"></rect>
        <circle fill="#000000" cx="8" cy="18" r="3"></circle>
    </g>
</svg>
